static/favicon.svg

<svg width="12" height="14" viewBox="0 0 12 14" fill="none" xmlns="http://www.w3.org/2000/svg">
<style>path { fill: #080820; }</style>
<path d="M12 10.7328V3.11673C12 3.00438 11.9487 2.89202 11.8606 2.82782C11.7726 2.76361 11.6626 2.75559 11.5672 2.80374L8.72127 4.15201V1.98515C8.72127 1.87279 8.66993 1.76044 8.58191 1.69624C8.49389 1.63203 8.38386 1.62401 8.28851 1.66413L5.44254 3.0124V0.845543C5.44254 0.733188 5.3912 0.620832 5.30318 0.556629C5.21516 0.492426 5.10513 0.4844 5.00978 0.524527L0.190709 2.80374C0.0733498 2.85992 0 2.9803 0 3.11673V10.7328C0 10.8452 0.0513449 10.9575 0.139364 11.0218C0.190709 11.0619 0.249389 11.0779 0.308069 11.0779C0.352078 11.0779 0.388753 11.0699 0.432763 11.0539L3.27873 9.70559V11.8724C3.27873 11.9848 3.33007 12.0972 3.41809 12.1614C3.46944 12.2015 3.52812 12.2175 3.5868 12.2175C3.63081 12.2175 3.66748 12.2095 3.71149 12.1935L6.55746 10.8452V13.0121C6.55746 13.1244 6.6088 13.2368 6.69682 13.301C6.74817 13.3411 6.80685 13.3571 6.86553 13.3571C6.90954 13.3571 6.94621 13.3491 6.99022 13.3331L11.802 11.0539C11.9267 10.9977 12 10.8693 12 10.7328ZM11.3765 10.5081L7.18826 12.4904V10.5483L8.53056 9.91425C8.64792 9.85807 8.72127 9.73769 8.72127 9.60126V5.63671L8.0978 5.93365V9.36852L7.18826 9.80189L6.56479 10.0988L3.90954 11.3508V9.40865L5.25183 8.77464C5.36919 8.71846 5.44254 8.59808 5.44254 8.46165V4.4971L4.81907 4.79404V8.22891L3.90954 8.66228L3.28606 8.95922L0.630807 10.2112V3.34144L4.81907 1.35917V3.30934L3.47677 3.94335C3.35941 3.99953 3.28606 4.11991 3.28606 4.25634V8.21286L3.90954 7.91592V4.48105L4.81907 4.04768L5.44254 3.75074L8.0978 2.49878V4.44092L6.7555 5.07493C6.63814 5.13111 6.56479 5.25149 6.56479 5.38792V9.34444L7.18826 9.0475V5.62066L8.0978 5.18729L8.72127 4.89035L11.3765 3.63838V10.5081Z" />
</svg>

<svg xmlns="http://www.w3.org/2000/svg" width="12" height="14"><path d="M12 10.733V3.117a.36.36 0 0 0-.14-.29.278.278 0 0 0-.293-.023L8.721 4.152V1.985a.361.361 0 0 0-.14-.289.297.297 0 0 0-.292-.032L5.443 3.012V.846a.361.361 0 0 0-.14-.29.297.297 0 0 0-.293-.031L.19 2.804a.342.342 0 0 0-.19.313v7.616c0 .112.051.224.14.289.05.04.11.056.168.056.044 0 .08-.008.125-.024l2.846-1.348v2.166c0 .113.051.225.14.29.05.04.11.055.168.055.044 0 .08-.008.124-.024l2.846-1.348v2.167c0 .112.052.225.14.289.051.04.11.056.169.056.044 0 .08-.008.124-.024l4.812-2.28a.348.348 0 0 0 .198-.32Zm-.623-.225L7.188 12.49v-1.942l1.343-.634a.342.342 0 0 0 .19-.313V5.637l-.623.297v3.435l-.91.433-.623.297L3.91 11.35V9.409l1.342-.634a.342.342 0 0 0 .19-.313V4.497l-.623.297v3.435l-.91.433-.623.297-2.655 1.252v-6.87L4.819 1.36v1.95l-1.342.634a.342.342 0 0 0-.19.313v3.957l.623-.297V4.48l.91-.433.623-.297 2.655-1.252V4.44l-1.343.634a.342.342 0 0 0-.19.313v3.956l.623-.296V5.62l.91-.434.623-.297 2.655-1.252v6.87Z" style="fill:#080820"/></svg>
